X: 10721
Q: "Slow"
M: C
L: 1/8
K: G
V: 1 clef=treble
d2 |\
g3 f agfe | {e}d3 c B3 c |\
d2 dz Bz Gz | Fz Az D2 d2 |\
g3 f agfe | {e}d3 c B2 Bc/d/ |\
{d}c3 B BAGF |
a2 d2 d2 ^c>d | d2 d>d d2 d2 |\
d3 c Bcde | =f3 F {F}E3 e |
e3 d ^cdef | g3 G F2 d2 |\
{a}g2 fe {e}d3e/c/ | B>c A>G G3 G |\
g3 g B3 c |
d2 B2 e4 |\
ed/c/ {B/}A>G {G}HF2 d2 | g3 d a2 d2 |\
b2 g2 d2 Hzd | b3 a g3 f |\
{f}e3 d c3 B | {B}A2 Bc d2 d2 |\
V: 2 clef=treble
z2 |\
E4 G2 G2 | F2 G2 AFEG | F2 F>F F2 B2 | B3 A GABc | d3 D C3 A |
^c3 B ABcd | e3 E D2 d2 | Gedc B3A | G2 F2 G2 G2 | !/!G4 !/!F4 |
g2 G2 D2 Hzd | g3 f e3 d | {d}c3 B A3 G | F2 GA D2 DD | G2 G2 z2 |]



